X: 6431
T: Castlebar Races, The
R: jig
M: 6/8
K: Gmajor
gdB BAB|GBA GBd|gdB BAB|GBd e2d|
gdB BAB|GBA GBd|gfe fdB|GBd e2:|
f|~g3 bag|~f3 afd|~g3 bag|afd e2f|
~g3 bag|~f3 afd|gfe fdB|GBd e2:|

